X: 21741
T: DRUNK AT NIGHT AND DRY IN THE MORNING
O: From Niel Gow's Collection
Q: "Slow."
%R: air
B: W. Hamilton "Universal Tune-Book" Vol. 2 Glasgow 1846 p.174 #1
S: http://s3-eu-west-1.amazonaws.com/itma.dl.printmaterial/book_pdfs/hamiltonvol2web.pdf
Z: 2016 John Chambers <jc:trillian.mit.edu>
M: 3/4
L: 1/8
K: A
% - - - - - - - - - - - - - - - - - - - - - - - - -
|:\
{AB}c4 B2 | c>BA>B c2 | (E2 A2) (B/c/d) | (d2c2) B2 |\
{d}c>BA>B c2 | E>DC>D E2 | (F2A2) G2 | A6 :|\
A2 (ef/e/) c2 |
A2 (ef/e/) c2 | (A2e2) e2 | e3d c2 |\
A2 (ef/e/) c2 | A2 (ef/e/) c2 | A2c2 c2 | c3B A2 |\
c>BA>B c2 | E>DC>D E2 | (F2A2) (Bc/d/) |
(d2c2) B2 |\
c>BA>B c2 | E>DC>D E2 | (F2A2) G2 | "^D.C."A4 |]\
A,B,/C/ |\
D2FD FD | C2(EC) EC | A,2A2 (Bc/d/) | (d2c2) B2 |
D2(FD) (FD) | C2(EC) (EC) | A,2A2 G2 | A4 (A,B,/C/) |\
D2(FD) (FD) | C2(EC) (EC) | A,2A2 (Bc/d/) | (d2c2) B2 |\
c>BA>B c2 |
E>DC>D E2 | (F2A2) G2 | "^Fin."A6 H|]\
A2(fA) (fA) | A2(eA) (eA) | A2e2 e2 | e3d c2 |\
A2(fA) (fA) | A2(eA) (eA) | A2c2 c2 | Hc3B HA2 |
c>BA>B {AB}c2 | E>DC>D E2 | F2A2 (Bc/d/) | (d2c2) B2 |\
{d}c>BA>B {AB}c2 | E>DC>D E2 | (F2A2) G2 | "^D.C."A4 |]
% - - - - - - - - - - - - - - - - - - - - - - - - -

%%sep 1 1 500
%%sep 1 1 500

